X:112
T:Bellisle March. JGi.112
T:Bellerby March. JGi.112
T:Monk’s March,aka. JGi.112
M:C|
L:1/8
Q:1/4=130
S:Joshua Gibbons MS,1823,Tealby,Lincs.
R:march
O:Tealby,Lincolnshire
Z:VMP/R.Greig, 2009
K:G
D2|G2G>BA2A>c|B2g>ed3c|B2(3dBGA2(3cAF|G2G>GG2:|
|:Bc|d>ed>c B2B2|c>dc>BA2A2|d>ed>c B>AB>c|d2c>BA2D2|
G2G>BA2A>c|B2g>ed3c|B2(3dBGA2(3cAF|G2G>GG2|]

